src/icons/svg/eos_login.svg

<?xml version="1.0" encoding="UTF-8"?>
<svg width="100px" height="150px" viewBox="0 0 100 150" version="1.1" xmlns="http://www.w3.org/2000/svg" xmlns:xlink="http://www.w3.org/1999/xlink">
    <!-- Generator: Sketch 56.3 (81716) - https://sketch.com -->
    <title>EOS</title>
    <desc>Created with Sketch.</desc>
    <g id="Page-1" stroke="none" stroke-width="1" fill="none" fill-rule="evenodd">
        <g id="EOS" fill="#FFFFFF" fill-rule="nonzero">
            <path d="M25.2922295,79.3405957 L0.993801367,121.806115 L48.287552,149.955445 L25.2922295,79.3405957 L25.2922295,79.3405957 Z M0.315287695,113.122488 L23.2454549,73.0497406 L14.9797205,47.6661398 L0.315287695,113.122488 Z M71.36151,73.3710234 L50.1366141,35.9224613 L28.5769547,73.5979436 L50.1635748,139.883337 L71.36151,73.3710234 Z M84.6352145,47.8660992 L76.681776,72.818327 L99.4254643,112.947243 L84.6352145,47.8660992 Z M74.6529752,79.1810775 L52.1227268,149.874562 L98.8165994,121.815102 L74.6529752,79.1810775 Z M81.5279813,41.4718943 L52.6394756,0.442038086 L52.6394756,30.3954957 L73.3880641,67.0082729 L81.5279813,41.4718943 L81.5279813,41.4718943 Z M47.7371021,30.2472113 L47.7371021,0.2533125 L18.1071742,41.44044 L26.5301799,67.3093352 L47.7371021,30.2472113 L47.7371021,30.2472113 Z" id="Shape"></path>
        </g>
    </g>
</svg>

<svg width="100" height="150" xmlns="http://www.w3.org/2000/svg"><path d="M25.292 79.34L.994 121.807l47.294 28.15L25.292 79.34zM.315 113.123l22.93-40.072-8.265-25.384L.315 113.122zm71.047-39.751L50.137 35.922l-21.56 37.676 21.587 66.285 21.198-66.512zm13.273-25.505l-7.953 24.952 22.743 40.13-14.79-65.082zm-9.982 31.315l-22.53 70.694 46.694-28.06-24.164-42.634zm6.875-37.71L52.639.443v29.953l20.75 36.613 8.139-25.536zm-33.79-11.224V.253L18.107 41.44l8.422 25.87 21.207-37.063z"/></svg>
